lib/brands/icons/dribbble.svg

<svg xmlns="http://www.w3.org/2000/svg" fill="none" aria-hidden="true" viewBox="0 0 48 48"><g id="dribbble-Icon"><g id="Group"><path id="Vector" fill="#EA4C89" d="M24 41.4375C33.6305 41.4375 41.4375 33.6305 41.4375 24C41.4375 14.3695 33.6305 6.5625 24 6.5625C14.3695 6.5625 6.5625 14.3695 6.5625 24C6.5625 33.6305 14.3695 41.4375 24 41.4375Z"/><path id="Vector_2" fill="#C32361" fill-rule="evenodd" d="M24 6C14.0629 6 6 14.0629 6 24C6 33.9371 14.0629 42 24 42C33.9176 42 42 33.9371 42 24C42 14.0629 33.9176 6 24 6ZM35.8893 14.2972C38.0369 16.9132 39.3254 20.2516 39.3645 23.8633C38.8569 23.7658 33.7809 22.731 28.6659 23.3753C28.5488 23.1215 28.4512 22.8481 28.3341 22.5749C28.0217 21.833 27.6703 21.0716 27.3189 20.3493C32.9804 18.0456 35.5575 14.7267 35.8893 14.2972ZM24 8.6551C27.9045 8.6551 31.4772 10.1193 34.1909 12.5206C33.9175 12.9111 31.5943 16.0152 26.1279 18.0651C23.6095 13.4382 20.8178 9.65076 20.3883 9.06507C21.5401 8.79175 22.7506 8.6551 24 8.6551ZM17.4599 10.0998C17.8699 10.6464 20.6031 14.4534 23.1605 18.9826C15.9761 20.8959 9.63124 20.8569 8.94794 20.8569C9.9436 16.0933 13.1649 12.1301 17.4599 10.0998ZM8.61605 24.0196C8.61605 23.8633 8.61605 23.7072 8.61605 23.551C9.27983 23.5705 16.7375 23.6681 24.41 21.3645C24.8591 22.2234 25.269 23.1019 25.6595 23.9804C25.4642 24.039 25.2494 24.0976 25.0542 24.1561C17.128 26.7136 12.9111 33.7028 12.5597 34.2885C10.1193 31.5748 8.61605 27.9632 8.61605 24.0196ZM24 39.3839C20.4468 39.3839 17.167 38.1735 14.5705 36.1431C14.8438 35.577 17.9674 29.564 26.6355 26.538C26.6746 26.5184 26.6942 26.5184 26.7332 26.499C28.9002 32.1019 29.7788 36.8069 30.013 38.154C28.1583 38.9544 26.1279 39.3839 24 39.3839ZM32.5705 36.7484C32.4143 35.8113 31.5943 31.3211 29.5835 25.7961C34.4057 25.0347 38.6225 26.2842 39.1497 26.4599C38.486 30.7354 36.026 34.4251 32.5705 36.7484Z" clip-rule="evenodd"/></g></g></svg>

<svg xmlns="http://www.w3.org/2000/svg" fill="none" aria-hidden="true" viewBox="0 0 48 48"><path fill="#EA4C89" d="M24 41.438c9.63 0 17.438-7.808 17.438-17.438 0-9.63-7.808-17.438-17.438-17.438C14.37 6.563 6.562 14.37 6.562 24c0 9.63 7.808 17.438 17.438 17.438Z"/><path fill="#C32361" fill-rule="evenodd" d="M24 6C14.063 6 6 14.063 6 24s8.063 18 18 18c9.918 0 18-8.063 18-18S33.918 6 24 6Zm11.89 8.297a15.304 15.304 0 0 1 3.474 9.566c-.507-.097-5.583-1.132-10.698-.488-.117-.253-.215-.527-.332-.8a45.739 45.739 0 0 0-1.015-2.226c5.661-2.303 8.238-5.622 8.57-6.052ZM24 8.655a15.34 15.34 0 0 1 10.19 3.866c-.273.39-2.596 3.494-8.062 5.544-2.518-4.627-5.31-8.414-5.74-9A15.635 15.635 0 0 1 24 8.655ZM17.46 10.1c.41.546 3.143 4.353 5.7 8.883-7.184 1.913-13.529 1.874-14.212 1.874.996-4.764 4.217-8.727 8.512-10.757ZM8.616 24.02v-.469c.664.02 8.122.117 15.794-2.186.45.858.859 1.737 1.25 2.615-.196.059-.41.118-.606.176-7.926 2.558-12.143 9.547-12.494 10.133a15.339 15.339 0 0 1-3.944-10.27ZM24 39.384c-3.553 0-6.833-1.21-9.43-3.24.274-.567 3.397-6.58 12.066-9.606.039-.02.058-.02.097-.039 2.167 5.603 3.046 10.308 3.28 11.655A15.13 15.13 0 0 1 24 39.384Zm8.57-2.636c-.156-.937-.976-5.427-2.986-10.952 4.822-.761 9.039.488 9.566.664-.664 4.275-3.124 7.965-6.58 10.288Z" clip-rule="evenodd"/></svg>
